%
(1001)
(T1  D=3. CR=0. - ZMIN=-18. - FLAT END MILL)
N1 G90 G94 G17 G91.1
N2 G21
(WHEN USING FUSION 360 FOR PERSONAL USE, THE FEEDRATE OF)
(RAPID MOVES IS REDUCED TO MATCH THE FEEDRATE OF CUTTING)
(MOVES, WHICH CAN INCREASE MACHINING TIME. UNRESTRICTED RAPID)
(MOVES ARE AVAILABLE WITH A FUSION 360 SUBSCRIPTION.)
(2D POCKET1)
N3 T1
N4 S5000 M3
N5 G54
N6 G64 P0.1
N7 M8
N8 G0 X58.228 Y58.935
N9 G43 Z15. H1
N10 G1 Z5. F300.
N11 Z2.8 F100.
N12 X58.252 Y58.915 Z2.666
N13 X58.32 Y58.86 Z2.561
N14 X58.386 Y58.813 Z2.517
N15 X58.463 Y58.766 Z2.5
N16 G3 X59.887 Y61.234 Z2.35 I0.712 J1.234
N17 X58.463 Y58.766 Z2.2 I-0.712 J-1.234
N18 X59.887 Y61.234 Z2.05 I0.712 J1.234
N19 X58.463 Y58.766 Z1.9 I-0.712 J-1.234
N20 X59.887 Y61.234 Z1.75 I0.712 J1.234
N21 X58.463 Y58.766 Z1.6 I-0.712 J-1.234
N22 X59.887 Y61.234 Z1.45 I0.712 J1.234
N23 X58.463 Y58.766 Z1.3 I-0.712 J-1.234
N24 X59.887 Y61.234 Z1.15 I0.712 J1.234
N25 X58.463 Y58.766 Z1. I-0.712 J-1.234
N26 X59.887 Y61.234 Z0.85 I0.712 J1.234
N27 X58.463 Y58.766 Z0.7 I-0.712 J-1.234
N28 X59.887 Y61.234 Z0.55 I0.712 J1.234
N29 X58.463 Y58.766 Z0.4 I-0.712 J-1.234
N30 X59.887 Y61.234 Z0.25 I0.712 J1.234
N31 X58.463 Y58.766 Z0.1 I-0.712 J-1.234
N32 X59.887 Y61.234 Z-0.05 I0.712 J1.234
N33 X58.463 Y58.766 Z-0.2 I-0.712 J-1.234
N34 X60.6 Y60. Z-0.3 I0.712 J1.234
N35 X59.4 I-0.6 J0. F300.
N36 X62.4 I1.5 J0.
N37 X57.6 I-2.4 J0.
N38 X64.2 I3.3 J0.
N39 X55.8 I-4.2 J0.
N40 X66. I5.1 J0.
N41 X54. I-6. J0.
N42 X66. I6. J0.
N43 X64.575 Y61.425 Z-0.347 I-1.425 J0. F100.
N44 G1 X59.175 Z-0.46
N45 G3 Y58.575 Z-0.553 I0. J-1.425
N46 X60.6 Y60. Z-0.6 I0. J1.425
N47 X59.4 I-0.6 J0. F300.
N48 X62.4 I1.5 J0.
N49 X57.6 I-2.4 J0.
N50 X64.2 I3.3 J0.
N51 X55.8 I-4.2 J0.
N52 X66. I5.1 J0.
N53 X54. I-6. J0.
N54 X66. I6. J0.
N55 X64.575 Y61.425 Z-0.647 I-1.425 J0. F100.
N56 G1 X59.175 Z-0.76
N57 G3 Y58.575 Z-0.853 I0. J-1.425
N58 X60.6 Y60. Z-0.9 I0. J1.425
N59 X59.4 I-0.6 J0. F300.
N60 X62.4 I1.5 J0.
N61 X57.6 I-2.4 J0.
N62 X64.2 I3.3 J0.
N63 X55.8 I-4.2 J0.
N64 X66. I5.1 J0.
N65 X54. I-6. J0.
N66 X66. I6. J0.
N67 X64.575 Y61.425 Z-0.947 I-1.425 J0. F100.
N68 G1 X59.175 Z-1.06
N69 G3 Y58.575 Z-1.153 I0. J-1.425
N70 X60.6 Y60. Z-1.2 I0. J1.425
N71 X59.4 I-0.6 J0. F300.
N72 X62.4 I1.5 J0.
N73 X57.6 I-2.4 J0.
N74 X64.2 I3.3 J0.
N75 X55.8 I-4.2 J0.
N76 X66. I5.1 J0.
N77 X54. I-6. J0.
N78 X66. I6. J0.
N79 X64.575 Y61.425 Z-1.247 I-1.425 J0. F100.
N80 G1 X59.175 Z-1.36
N81 G3 Y58.575 Z-1.453 I0. J-1.425
N82 X60.6 Y60. Z-1.5 I0. J1.425
N83 X59.4 I-0.6 J0. F300.
N84 X62.4 I1.5 J0.
N85 X57.6 I-2.4 J0.
N86 X64.2 I3.3 J0.
N87 X55.8 I-4.2 J0.
N88 X66. I5.1 J0.
N89 X54. I-6. J0.
N90 X66. I6. J0.
N91 X64.575 Y61.425 Z-1.547 I-1.425 J0. F100.
N92 G1 X59.175 Z-1.66
N93 G3 Y58.575 Z-1.753 I0. J-1.425
N94 X60.6 Y60. Z-1.8 I0. J1.425
N95 X59.4 I-0.6 J0. F300.
N96 X62.4 I1.5 J0.
N97 X57.6 I-2.4 J0.
N98 X64.2 I3.3 J0.
N99 X55.8 I-4.2 J0.
N100 X66. I5.1 J0.
N101 X54. I-6. J0.
N102 X66. I6. J0.
N103 X64.575 Y61.425 Z-1.847 I-1.425 J0. F100.
N104 G1 X59.175 Z-1.96
N105 G3 Y58.575 Z-2.053 I0. J-1.425
N106 X60.6 Y60. Z-2.1 I0. J1.425
N107 X59.4 I-0.6 J0. F300.
N108 X62.4 I1.5 J0.
N109 X57.6 I-2.4 J0.
N110 X64.2 I3.3 J0.
N111 X55.8 I-4.2 J0.
N112 X66. I5.1 J0.
N113 X54. I-6. J0.
N114 X66. I6. J0.
N115 X64.575 Y61.425 Z-2.147 I-1.425 J0. F100.
N116 G1 X59.175 Z-2.26
N117 G3 Y58.575 Z-2.353 I0. J-1.425
N118 X60.6 Y60. Z-2.4 I0. J1.425
N119 X59.4 I-0.6 J0. F300.
N120 X62.4 I1.5 J0.
N121 X57.6 I-2.4 J0.
N122 X64.2 I3.3 J0.
N123 X55.8 I-4.2 J0.
N124 X66. I5.1 J0.
N125 X54. I-6. J0.
N126 X66. I6. J0.
N127 X64.575 Y61.425 Z-2.447 I-1.425 J0. F100.
N128 G1 X59.175 Z-2.56
N129 G3 Y58.575 Z-2.653 I0. J-1.425
N130 X60.6 Y60. Z-2.7 I0. J1.425
N131 X59.4 I-0.6 J0. F300.
N132 X62.4 I1.5 J0.
N133 X57.6 I-2.4 J0.
N134 X64.2 I3.3 J0.
N135 X55.8 I-4.2 J0.
N136 X66. I5.1 J0.
N137 X54. I-6. J0.
N138 X66. I6. J0.
N139 X64.575 Y61.425 Z-2.747 I-1.425 J0. F100.
N140 G1 X59.175 Z-2.86
N141 G3 Y58.575 Z-2.953 I0. J-1.425
N142 X60.6 Y60. Z-3. I0. J1.425
N143 X59.4 I-0.6 J0. F300.
N144 X62.4 I1.5 J0.
N145 X57.6 I-2.4 J0.
N146 X64.2 I3.3 J0.
N147 X55.8 I-4.2 J0.
N148 X66. I5.1 J0.
N149 X54. I-6. J0.
N150 X66. I6. J0.
N151 X64.575 Y61.425 Z-3.047 I-1.425 J0. F100.
N152 G1 X59.175 Z-3.16
N153 G3 Y58.575 Z-3.253 I0. J-1.425
N154 X60.6 Y60. Z-3.3 I0. J1.425
N155 X59.4 I-0.6 J0. F300.
N156 X62.4 I1.5 J0.
N157 X57.6 I-2.4 J0.
N158 X64.2 I3.3 J0.
N159 X55.8 I-4.2 J0.
N160 X66. I5.1 J0.
N161 X54. I-6. J0.
N162 X66. I6. J0.
N163 X64.575 Y61.425 Z-3.347 I-1.425 J0. F100.
N164 G1 X59.175 Z-3.46
N165 G3 Y58.575 Z-3.553 I0. J-1.425
N166 X60.6 Y60. Z-3.6 I0. J1.425
N167 X59.4 I-0.6 J0. F300.
N168 X62.4 I1.5 J0.
N169 X57.6 I-2.4 J0.
N170 X64.2 I3.3 J0.
N171 X55.8 I-4.2 J0.
N172 X66. I5.1 J0.
N173 X54. I-6. J0.
N174 X66. I6. J0.
N175 X64.575 Y61.425 Z-3.647 I-1.425 J0. F100.
N176 G1 X59.175 Z-3.76
N177 G3 Y58.575 Z-3.853 I0. J-1.425
N178 X60.6 Y60. Z-3.9 I0. J1.425
N179 X59.4 I-0.6 J0. F300.
N180 X62.4 I1.5 J0.
N181 X57.6 I-2.4 J0.
N182 X64.2 I3.3 J0.
N183 X55.8 I-4.2 J0.
N184 X66. I5.1 J0.
N185 X54. I-6. J0.
N186 X66. I6. J0.
N187 X64.575 Y61.425 Z-3.947 I-1.425 J0. F100.
N188 G1 X59.175 Z-4.06
N189 G3 Y58.575 Z-4.153 I0. J-1.425
N190 X60.6 Y60. Z-4.2 I0. J1.425
N191 X59.4 I-0.6 J0. F300.
N192 X62.4 I1.5 J0.
N193 X57.6 I-2.4 J0.
N194 X64.2 I3.3 J0.
N195 X55.8 I-4.2 J0.
N196 X66. I5.1 J0.
N197 X54. I-6. J0.
N198 X66. I6. J0.
N199 X64.575 Y61.425 Z-4.247 I-1.425 J0. F100.
N200 G1 X59.175 Z-4.36
N201 G3 Y58.575 Z-4.453 I0. J-1.425
N202 X60.6 Y60. Z-4.5 I0. J1.425
N203 X59.4 I-0.6 J0. F300.
N204 X62.4 I1.5 J0.
N205 X57.6 I-2.4 J0.
N206 X64.2 I3.3 J0.
N207 X55.8 I-4.2 J0.
N208 X66. I5.1 J0.
N209 X54. I-6. J0.
N210 X66. I6. J0.
N211 X64.575 Y61.425 Z-4.547 I-1.425 J0. F100.
N212 G1 X59.175 Z-4.66
N213 G3 Y58.575 Z-4.753 I0. J-1.425
N214 X60.6 Y60. Z-4.8 I0. J1.425
N215 X59.4 I-0.6 J0. F300.
N216 X62.4 I1.5 J0.
N217 X57.6 I-2.4 J0.
N218 X64.2 I3.3 J0.
N219 X55.8 I-4.2 J0.
N220 X66. I5.1 J0.
N221 X54. I-6. J0.
N222 X66. I6. J0.
N223 X64.575 Y61.425 Z-4.847 I-1.425 J0. F100.
N224 G1 X59.175 Z-4.96
N225 G3 Y58.575 Z-5.053 I0. J-1.425
N226 X60.6 Y60. Z-5.1 I0. J1.425
N227 X59.4 I-0.6 J0. F300.
N228 X62.4 I1.5 J0.
N229 X57.6 I-2.4 J0.
N230 X64.2 I3.3 J0.
N231 X55.8 I-4.2 J0.
N232 X66. I5.1 J0.
N233 X54. I-6. J0.
N234 X66. I6. J0.
N235 X64.575 Y61.425 Z-5.147 I-1.425 J0. F100.
N236 G1 X59.175 Z-5.26
N237 G3 Y58.575 Z-5.353 I0. J-1.425
N238 X60.6 Y60. Z-5.4 I0. J1.425
N239 X59.4 I-0.6 J0. F300.
N240 X62.4 I1.5 J0.
N241 X57.6 I-2.4 J0.
N242 X64.2 I3.3 J0.
N243 X55.8 I-4.2 J0.
N244 X66. I5.1 J0.
N245 X54. I-6. J0.
N246 X66. I6. J0.
N247 X64.575 Y61.425 Z-5.447 I-1.425 J0. F100.
N248 G1 X59.175 Z-5.56
N249 G3 Y58.575 Z-5.653 I0. J-1.425
N250 X60.6 Y60. Z-5.7 I0. J1.425
N251 X59.4 I-0.6 J0. F300.
N252 X62.4 I1.5 J0.
N253 X57.6 I-2.4 J0.
N254 X64.2 I3.3 J0.
N255 X55.8 I-4.2 J0.
N256 X66. I5.1 J0.
N257 X54. I-6. J0.
N258 X66. I6. J0.
N259 X64.575 Y61.425 Z-5.747 I-1.425 J0. F100.
N260 G1 X59.175 Z-5.86
N261 G3 Y58.575 Z-5.953 I0. J-1.425
N262 X60.6 Y60. Z-6. I0. J1.425
N263 X59.4 I-0.6 J0. F300.
N264 X62.4 I1.5 J0.
N265 X57.6 I-2.4 J0.
N266 X64.2 I3.3 J0.
N267 X55.8 I-4.2 J0.
N268 X66. I5.1 J0.
N269 X54. I-6. J0.
N270 X66. I6. J0.
N271 X64.575 Y61.425 Z-6.047 I-1.425 J0. F100.
N272 G1 X59.175 Z-6.16
N273 G3 Y58.575 Z-6.253 I0. J-1.425
N274 X60.6 Y60. Z-6.3 I0. J1.425
N275 X59.4 I-0.6 J0. F300.
N276 X62.4 I1.5 J0.
N277 X57.6 I-2.4 J0.
N278 X64.2 I3.3 J0.
N279 X55.8 I-4.2 J0.
N280 X66. I5.1 J0.
N281 X54. I-6. J0.
N282 X66. I6. J0.
N283 X64.575 Y61.425 Z-6.347 I-1.425 J0. F100.
N284 G1 X59.175 Z-6.46
N285 G3 Y58.575 Z-6.553 I0. J-1.425
N286 X60.6 Y60. Z-6.6 I0. J1.425
N287 X59.4 I-0.6 J0. F300.
N288 X62.4 I1.5 J0.
N289 X57.6 I-2.4 J0.
N290 X64.2 I3.3 J0.
N291 X55.8 I-4.2 J0.
N292 X66. I5.1 J0.
N293 X54. I-6. J0.
N294 X66. I6. J0.
N295 X64.575 Y61.425 Z-6.647 I-1.425 J0. F100.
N296 G1 X59.175 Z-6.76
N297 G3 Y58.575 Z-6.853 I0. J-1.425
N298 X60.6 Y60. Z-6.9 I0. J1.425
N299 X59.4 I-0.6 J0. F300.
N300 X62.4 I1.5 J0.
N301 X57.6 I-2.4 J0.
N302 X64.2 I3.3 J0.
N303 X55.8 I-4.2 J0.
N304 X66. I5.1 J0.
N305 X54. I-6. J0.
N306 X66. I6. J0.
N307 X64.575 Y61.425 Z-6.947 I-1.425 J0. F100.
N308 G1 X59.175 Z-7.06
N309 G3 Y58.575 Z-7.153 I0. J-1.425
N310 X60.6 Y60. Z-7.2 I0. J1.425
N311 X59.4 I-0.6 J0. F300.
N312 X62.4 I1.5 J0.
N313 X57.6 I-2.4 J0.
N314 X64.2 I3.3 J0.
N315 X55.8 I-4.2 J0.
N316 X66. I5.1 J0.
N317 X54. I-6. J0.
N318 X66. I6. J0.
N319 X64.575 Y61.425 Z-7.247 I-1.425 J0. F100.
N320 G1 X59.175 Z-7.36
N321 G3 Y58.575 Z-7.453 I0. J-1.425
N322 X60.6 Y60. Z-7.5 I0. J1.425
N323 X59.4 I-0.6 J0. F300.
N324 X62.4 I1.5 J0.
N325 X57.6 I-2.4 J0.
N326 X64.2 I3.3 J0.
N327 X55.8 I-4.2 J0.
N328 X66. I5.1 J0.
N329 X54. I-6. J0.
N330 X66. I6. J0.
N331 X64.575 Y61.425 Z-7.547 I-1.425 J0. F100.
N332 G1 X59.175 Z-7.66
N333 G3 Y58.575 Z-7.753 I0. J-1.425
N334 X60.6 Y60. Z-7.8 I0. J1.425
N335 X59.4 I-0.6 J0. F300.
N336 X62.4 I1.5 J0.
N337 X57.6 I-2.4 J0.
N338 X64.2 I3.3 J0.
N339 X55.8 I-4.2 J0.
N340 X66. I5.1 J0.
N341 X54. I-6. J0.
N342 X66. I6. J0.
N343 X64.575 Y61.425 Z-7.847 I-1.425 J0. F100.
N344 G1 X59.175 Z-7.96
N345 G3 Y58.575 Z-8.053 I0. J-1.425
N346 X60.6 Y60. Z-8.1 I0. J1.425
N347 X59.4 I-0.6 J0. F300.
N348 X62.4 I1.5 J0.
N349 X57.6 I-2.4 J0.
N350 X64.2 I3.3 J0.
N351 X55.8 I-4.2 J0.
N352 X66. I5.1 J0.
N353 X54. I-6. J0.
N354 X66. I6. J0.
N355 X64.575 Y61.425 Z-8.147 I-1.425 J0. F100.
N356 G1 X59.175 Z-8.26
N357 G3 Y58.575 Z-8.353 I0. J-1.425
N358 X60.6 Y60. Z-8.4 I0. J1.425
N359 X59.4 I-0.6 J0. F300.
N360 X62.4 I1.5 J0.
N361 X57.6 I-2.4 J0.
N362 X64.2 I3.3 J0.
N363 X55.8 I-4.2 J0.
N364 X66. I5.1 J0.
N365 X54. I-6. J0.
N366 X66. I6. J0.
N367 X64.575 Y61.425 Z-8.447 I-1.425 J0. F100.
N368 G1 X59.175 Z-8.56
N369 G3 Y58.575 Z-8.653 I0. J-1.425
N370 X60.6 Y60. Z-8.7 I0. J1.425
N371 X59.4 I-0.6 J0. F300.
N372 X62.4 I1.5 J0.
N373 X57.6 I-2.4 J0.
N374 X64.2 I3.3 J0.
N375 X55.8 I-4.2 J0.
N376 X66. I5.1 J0.
N377 X54. I-6. J0.
N378 X66. I6. J0.
N379 X64.575 Y61.425 Z-8.747 I-1.425 J0. F100.
N380 G1 X59.175 Z-8.86
N381 G3 Y58.575 Z-8.953 I0. J-1.425
N382 X60.6 Y60. Z-9. I0. J1.425
N383 X59.4 I-0.6 J0. F300.
N384 X62.4 I1.5 J0.
N385 X57.6 I-2.4 J0.
N386 X64.2 I3.3 J0.
N387 X55.8 I-4.2 J0.
N388 X66. I5.1 J0.
N389 X54. I-6. J0.
N390 X66. I6. J0.
N391 X64.575 Y61.425 Z-9.047 I-1.425 J0. F100.
N392 G1 X59.175 Z-9.16
N393 G3 Y58.575 Z-9.253 I0. J-1.425
N394 X60.6 Y60. Z-9.3 I0. J1.425
N395 X59.4 I-0.6 J0. F300.
N396 X62.4 I1.5 J0.
N397 X57.6 I-2.4 J0.
N398 X64.2 I3.3 J0.
N399 X55.8 I-4.2 J0.
N400 X66. I5.1 J0.
N401 X54. I-6. J0.
N402 X66. I6. J0.
N403 X64.575 Y61.425 Z-9.347 I-1.425 J0. F100.
N404 G1 X59.175 Z-9.46
N405 G3 Y58.575 Z-9.553 I0. J-1.425
N406 X60.6 Y60. Z-9.6 I0. J1.425
N407 X59.4 I-0.6 J0. F300.
N408 X62.4 I1.5 J0.
N409 X57.6 I-2.4 J0.
N410 X64.2 I3.3 J0.
N411 X55.8 I-4.2 J0.
N412 X66. I5.1 J0.
N413 X54. I-6. J0.
N414 X66. I6. J0.
N415 X64.575 Y61.425 Z-9.647 I-1.425 J0. F100.
N416 G1 X59.175 Z-9.76
N417 G3 Y58.575 Z-9.853 I0. J-1.425
N418 X60.6 Y60. Z-9.9 I0. J1.425
N419 X59.4 I-0.6 J0. F300.
N420 X62.4 I1.5 J0.
N421 X57.6 I-2.4 J0.
N422 X64.2 I3.3 J0.
N423 X55.8 I-4.2 J0.
N424 X66. I5.1 J0.
N425 X54. I-6. J0.
N426 X66. I6. J0.
N427 X64.575 Y61.425 Z-9.947 I-1.425 J0. F100.
N428 G1 X59.175 Z-10.06
N429 G3 Y58.575 Z-10.153 I0. J-1.425
N430 X60.6 Y60. Z-10.2 I0. J1.425
N431 X59.4 I-0.6 J0. F300.
N432 X62.4 I1.5 J0.
N433 X57.6 I-2.4 J0.
N434 X64.2 I3.3 J0.
N435 X55.8 I-4.2 J0.
N436 X66. I5.1 J0.
N437 X54. I-6. J0.
N438 X66. I6. J0.
N439 X64.575 Y61.425 Z-10.247 I-1.425 J0. F100.
N440 G1 X59.175 Z-10.36
N441 G3 Y58.575 Z-10.453 I0. J-1.425
N442 X60.6 Y60. Z-10.5 I0. J1.425
N443 X59.4 I-0.6 J0. F300.
N444 X62.4 I1.5 J0.
N445 X57.6 I-2.4 J0.
N446 X64.2 I3.3 J0.
N447 X55.8 I-4.2 J0.
N448 X66. I5.1 J0.
N449 X54. I-6. J0.
N450 X66. I6. J0.
N451 X64.575 Y61.425 Z-10.547 I-1.425 J0. F100.
N452 G1 X59.175 Z-10.66
N453 G3 Y58.575 Z-10.753 I0. J-1.425
N454 X60.6 Y60. Z-10.8 I0. J1.425
N455 X59.4 I-0.6 J0. F300.
N456 X62.4 I1.5 J0.
N457 X57.6 I-2.4 J0.
N458 X64.2 I3.3 J0.
N459 X55.8 I-4.2 J0.
N460 X66. I5.1 J0.
N461 X54. I-6. J0.
N462 X66. I6. J0.
N463 X64.575 Y61.425 Z-10.847 I-1.425 J0. F100.
N464 G1 X59.175 Z-10.96
N465 G3 Y58.575 Z-11.053 I0. J-1.425
N466 X60.6 Y60. Z-11.1 I0. J1.425
N467 X59.4 I-0.6 J0. F300.
N468 X62.4 I1.5 J0.
N469 X57.6 I-2.4 J0.
N470 X64.2 I3.3 J0.
N471 X55.8 I-4.2 J0.
N472 X66. I5.1 J0.
N473 X54. I-6. J0.
N474 X66. I6. J0.
N475 X64.575 Y61.425 Z-11.147 I-1.425 J0. F100.
N476 G1 X59.175 Z-11.26
N477 G3 Y58.575 Z-11.353 I0. J-1.425
N478 X60.6 Y60. Z-11.4 I0. J1.425
N479 X59.4 I-0.6 J0. F300.
N480 X62.4 I1.5 J0.
N481 X57.6 I-2.4 J0.
N482 X64.2 I3.3 J0.
N483 X55.8 I-4.2 J0.
N484 X66. I5.1 J0.
N485 X54. I-6. J0.
N486 X66. I6. J0.
N487 X64.575 Y61.425 Z-11.447 I-1.425 J0. F100.
N488 G1 X59.175 Z-11.56
N489 G3 Y58.575 Z-11.653 I0. J-1.425
N490 X60.6 Y60. Z-11.7 I0. J1.425
N491 X59.4 I-0.6 J0. F300.
N492 X62.4 I1.5 J0.
N493 X57.6 I-2.4 J0.
N494 X64.2 I3.3 J0.
N495 X55.8 I-4.2 J0.
N496 X66. I5.1 J0.
N497 X54. I-6. J0.
N498 X66. I6. J0.
N499 X64.575 Y61.425 Z-11.747 I-1.425 J0. F100.
N500 G1 X59.175 Z-11.86
N501 G3 Y58.575 Z-11.953 I0. J-1.425
N502 X60.6 Y60. Z-12. I0. J1.425
N503 X59.4 I-0.6 J0. F300.
N504 X62.4 I1.5 J0.
N505 X57.6 I-2.4 J0.
N506 X64.2 I3.3 J0.
N507 X55.8 I-4.2 J0.
N508 X66. I5.1 J0.
N509 X54. I-6. J0.
N510 X66. I6. J0.
N511 X64.575 Y61.425 Z-12.047 I-1.425 J0. F100.
N512 G1 X59.175 Z-12.16
N513 G3 Y58.575 Z-12.253 I0. J-1.425
N514 X60.6 Y60. Z-12.3 I0. J1.425
N515 X59.4 I-0.6 J0. F300.
N516 X62.4 I1.5 J0.
N517 X57.6 I-2.4 J0.
N518 X64.2 I3.3 J0.
N519 X55.8 I-4.2 J0.
N520 X66. I5.1 J0.
N521 X54. I-6. J0.
N522 X66. I6. J0.
N523 X64.575 Y61.425 Z-12.347 I-1.425 J0. F100.
N524 G1 X59.175 Z-12.46
N525 G3 Y58.575 Z-12.553 I0. J-1.425
N526 X60.6 Y60. Z-12.6 I0. J1.425
N527 X59.4 I-0.6 J0. F300.
N528 X62.4 I1.5 J0.
N529 X57.6 I-2.4 J0.
N530 X64.2 I3.3 J0.
N531 X55.8 I-4.2 J0.
N532 X66. I5.1 J0.
N533 X54. I-6. J0.
N534 X66. I6. J0.
N535 X64.575 Y61.425 Z-12.647 I-1.425 J0. F100.
N536 G1 X59.175 Z-12.76
N537 G3 Y58.575 Z-12.853 I0. J-1.425
N538 X60.6 Y60. Z-12.9 I0. J1.425
N539 X59.4 I-0.6 J0. F300.
N540 X62.4 I1.5 J0.
N541 X57.6 I-2.4 J0.
N542 X64.2 I3.3 J0.
N543 X55.8 I-4.2 J0.
N544 X66. I5.1 J0.
N545 X54. I-6. J0.
N546 X66. I6. J0.
N547 X64.575 Y61.425 Z-12.947 I-1.425 J0. F100.
N548 G1 X59.175 Z-13.06
N549 G3 Y58.575 Z-13.153 I0. J-1.425
N550 X60.6 Y60. Z-13.2 I0. J1.425
N551 X59.4 I-0.6 J0. F300.
N552 X62.4 I1.5 J0.
N553 X57.6 I-2.4 J0.
N554 X64.2 I3.3 J0.
N555 X55.8 I-4.2 J0.
N556 X66. I5.1 J0.
N557 X54. I-6. J0.
N558 X66. I6. J0.
N559 X64.575 Y61.425 Z-13.247 I-1.425 J0. F100.
N560 G1 X59.175 Z-13.36
N561 G3 Y58.575 Z-13.453 I0. J-1.425
N562 X60.6 Y60. Z-13.5 I0. J1.425
N563 X59.4 I-0.6 J0. F300.
N564 X62.4 I1.5 J0.
N565 X57.6 I-2.4 J0.
N566 X64.2 I3.3 J0.
N567 X55.8 I-4.2 J0.
N568 X66. I5.1 J0.
N569 X54. I-6. J0.
N570 X66. I6. J0.
N571 X64.575 Y61.425 Z-13.547 I-1.425 J0. F100.
N572 G1 X59.175 Z-13.66
N573 G3 Y58.575 Z-13.753 I0. J-1.425
N574 X60.6 Y60. Z-13.8 I0. J1.425
N575 X59.4 I-0.6 J0. F300.
N576 X62.4 I1.5 J0.
N577 X57.6 I-2.4 J0.
N578 X64.2 I3.3 J0.
N579 X55.8 I-4.2 J0.
N580 X66. I5.1 J0.
N581 X54. I-6. J0.
N582 X66. I6. J0.
N583 X64.575 Y61.425 Z-13.847 I-1.425 J0. F100.
N584 G1 X59.175 Z-13.96
N585 G3 Y58.575 Z-14.053 I0. J-1.425
N586 X60.6 Y60. Z-14.1 I0. J1.425
N587 X59.4 I-0.6 J0. F300.
N588 X62.4 I1.5 J0.
N589 X57.6 I-2.4 J0.
N590 X64.2 I3.3 J0.
N591 X55.8 I-4.2 J0.
N592 X66. I5.1 J0.
N593 X54. I-6. J0.
N594 X66. I6. J0.
N595 X64.575 Y61.425 Z-14.147 I-1.425 J0. F100.
N596 G1 X59.175 Z-14.26
N597 G3 Y58.575 Z-14.353 I0. J-1.425
N598 X60.6 Y60. Z-14.4 I0. J1.425
N599 X59.4 I-0.6 J0. F300.
N600 X62.4 I1.5 J0.
N601 X57.6 I-2.4 J0.
N602 X64.2 I3.3 J0.
N603 X55.8 I-4.2 J0.
N604 X66. I5.1 J0.
N605 X54. I-6. J0.
N606 X66. I6. J0.
N607 X64.575 Y61.425 Z-14.447 I-1.425 J0. F100.
N608 G1 X59.175 Z-14.56
N609 G3 Y58.575 Z-14.653 I0. J-1.425
N610 X60.6 Y60. Z-14.7 I0. J1.425
N611 X59.4 I-0.6 J0. F300.
N612 X62.4 I1.5 J0.
N613 X57.6 I-2.4 J0.
N614 X64.2 I3.3 J0.
N615 X55.8 I-4.2 J0.
N616 X66. I5.1 J0.
N617 X54. I-6. J0.
N618 X66. I6. J0.
N619 X64.575 Y61.425 Z-14.747 I-1.425 J0. F100.
N620 G1 X59.175 Z-14.86
N621 G3 Y58.575 Z-14.953 I0. J-1.425
N622 X60.6 Y60. Z-15. I0. J1.425
N623 X59.4 I-0.6 J0. F300.
N624 X62.4 I1.5 J0.
N625 X57.6 I-2.4 J0.
N626 X64.2 I3.3 J0.
N627 X55.8 I-4.2 J0.
N628 X66. I5.1 J0.
N629 X54. I-6. J0.
N630 X66. I6. J0.
N631 X64.575 Y61.425 Z-15.047 I-1.425 J0. F100.
N632 G1 X59.175 Z-15.16
N633 G3 Y58.575 Z-15.253 I0. J-1.425
N634 X60.6 Y60. Z-15.3 I0. J1.425
N635 X59.4 I-0.6 J0. F300.
N636 X62.4 I1.5 J0.
N637 X57.6 I-2.4 J0.
N638 X64.2 I3.3 J0.
N639 X55.8 I-4.2 J0.
N640 X66. I5.1 J0.
N641 X54. I-6. J0.
N642 X66. I6. J0.
N643 X64.575 Y61.425 Z-15.347 I-1.425 J0. F100.
N644 G1 X59.175 Z-15.46
N645 G3 Y58.575 Z-15.553 I0. J-1.425
N646 X60.6 Y60. Z-15.6 I0. J1.425
N647 X59.4 I-0.6 J0. F300.
N648 X62.4 I1.5 J0.
N649 X57.6 I-2.4 J0.
N650 X64.2 I3.3 J0.
N651 X55.8 I-4.2 J0.
N652 X66. I5.1 J0.
N653 X54. I-6. J0.
N654 X66. I6. J0.
N655 X64.575 Y61.425 Z-15.647 I-1.425 J0. F100.
N656 G1 X59.175 Z-15.76
N657 G3 Y58.575 Z-15.853 I0. J-1.425
N658 X60.6 Y60. Z-15.9 I0. J1.425
N659 X59.4 I-0.6 J0. F300.
N660 X62.4 I1.5 J0.
N661 X57.6 I-2.4 J0.
N662 X64.2 I3.3 J0.
N663 X55.8 I-4.2 J0.
N664 X66. I5.1 J0.
N665 X54. I-6. J0.
N666 X66. I6. J0.
N667 X64.575 Y61.425 Z-15.947 I-1.425 J0. F100.
N668 G1 X59.175 Z-16.06
N669 G3 Y58.575 Z-16.153 I0. J-1.425
N670 X60.6 Y60. Z-16.2 I0. J1.425
N671 X59.4 I-0.6 J0. F300.
N672 X62.4 I1.5 J0.
N673 X57.6 I-2.4 J0.
N674 X64.2 I3.3 J0.
N675 X55.8 I-4.2 J0.
N676 X66. I5.1 J0.
N677 X54. I-6. J0.
N678 X66. I6. J0.
N679 X64.575 Y61.425 Z-16.247 I-1.425 J0. F100.
N680 G1 X59.175 Z-16.36
N681 G3 Y58.575 Z-16.453 I0. J-1.425
N682 X60.6 Y60. Z-16.5 I0. J1.425
N683 X59.4 I-0.6 J0. F300.
N684 X62.4 I1.5 J0.
N685 X57.6 I-2.4 J0.
N686 X64.2 I3.3 J0.
N687 X55.8 I-4.2 J0.
N688 X66. I5.1 J0.
N689 X54. I-6. J0.
N690 X66. I6. J0.
N691 X64.575 Y61.425 Z-16.547 I-1.425 J0. F100.
N692 G1 X59.175 Z-16.66
N693 G3 Y58.575 Z-16.753 I0. J-1.425
N694 X60.6 Y60. Z-16.8 I0. J1.425
N695 X59.4 I-0.6 J0. F300.
N696 X62.4 I1.5 J0.
N697 X57.6 I-2.4 J0.
N698 X64.2 I3.3 J0.
N699 X55.8 I-4.2 J0.
N700 X66. I5.1 J0.
N701 X54. I-6. J0.
N702 X66. I6. J0.
N703 X64.575 Y61.425 Z-16.847 I-1.425 J0. F100.
N704 G1 X59.175 Z-16.96
N705 G3 Y58.575 Z-17.053 I0. J-1.425
N706 X60.6 Y60. Z-17.1 I0. J1.425
N707 X59.4 I-0.6 J0. F300.
N708 X62.4 I1.5 J0.
N709 X57.6 I-2.4 J0.
N710 X64.2 I3.3 J0.
N711 X55.8 I-4.2 J0.
N712 X66. I5.1 J0.
N713 X54. I-6. J0.
N714 X66. I6. J0.
N715 X64.575 Y61.425 Z-17.147 I-1.425 J0. F100.
N716 G1 X59.175 Z-17.26
N717 G3 Y58.575 Z-17.353 I0. J-1.425
N718 X60.6 Y60. Z-17.4 I0. J1.425
N719 X59.4 I-0.6 J0. F300.
N720 X62.4 I1.5 J0.
N721 X57.6 I-2.4 J0.
N722 X64.2 I3.3 J0.
N723 X55.8 I-4.2 J0.
N724 X66. I5.1 J0.
N725 X54. I-6. J0.
N726 X66. I6. J0.
N727 X64.575 Y61.425 Z-17.447 I-1.425 J0. F100.
N728 G1 X59.175 Z-17.56
N729 G3 Y58.575 Z-17.653 I0. J-1.425
N730 X60.6 Y60. Z-17.7 I0. J1.425
N731 X59.4 I-0.6 J0. F300.
N732 X62.4 I1.5 J0.
N733 X57.6 I-2.4 J0.
N734 X64.2 I3.3 J0.
N735 X55.8 I-4.2 J0.
N736 X66. I5.1 J0.
N737 X54. I-6. J0.
N738 X66. I6. J0.
N739 X64.575 Y61.425 Z-17.747 I-1.425 J0. F100.
N740 G1 X59.175 Z-17.86
N741 G3 Y58.575 Z-17.953 I0. J-1.425
N742 X60.6 Y60. Z-18. I0. J1.425
N743 X59.4 I-0.6 J0. F300.
N744 X62.4 I1.5 J0.
N745 X57.6 I-2.4 J0.
N746 X64.2 I3.3 J0.
N747 X55.8 I-4.2 J0.
N748 X66. I5.1 J0.
N749 X54. I-6. J0.
N750 X66. I6. J0.
N751 G1 X65.995 Y60.057 Z-17.989
N752 X65.978 Y60.112 Z-17.977
N753 X65.957 Y60.155 Z-17.945
N754 X65.928 Y60.195 Z-17.912
N755 X65.881 Y60.239 Z-17.815
N756 X65.862 Y60.252 Z-17.7
N757 Z15.
(WHEN USING FUSION 360 FOR PERSONAL USE, THE FEEDRATE OF)
(RAPID MOVES IS REDUCED TO MATCH THE FEEDRATE OF CUTTING)
(MOVES, WHICH CAN INCREASE MACHINING TIME. UNRESTRICTED RAPID)
(MOVES ARE AVAILABLE WITH A FUSION 360 SUBSCRIPTION.)
(2D CONTOUR3)
N758 G64 P0.01
N759 G0 X116. Y60.
N760 G1 Z15. F300.
N761 Z5.
N762 Z2.5 F100.
N763 Z-1.5
N764 G3 X109.814 Y85.585 I-56. J0. F300.
N765 G1 X71.045 Y63.202
N766 G2 Y56.798 I-11.045 J-3.202
N767 G1 X109.814 Y34.415
N768 G3 X116. Y60. I-49.814 J25.585
N769 G1 Z-3. F100.
N770 G3 X109.814 Y85.585 I-56. J0. F300.
N771 G1 X71.045 Y63.202
N772 G2 Y56.798 I-11.045 J-3.202
N773 G1 X109.814 Y34.415
N774 G3 X116. Y60. I-49.814 J25.585
N775 G1 Z-4.5 F100.
N776 G3 X109.814 Y85.585 I-56. J0. F300.
N777 G1 X71.045 Y63.202
N778 G2 Y56.798 I-11.045 J-3.202
N779 G1 X109.814 Y34.415
N780 G3 X116. Y60. I-49.814 J25.585
N781 G1 Z-6. F100.
N782 G3 X109.814 Y85.585 I-56. J0. F300.
N783 G1 X71.045 Y63.202
N784 G2 Y56.798 I-11.045 J-3.202
N785 G1 X109.814 Y34.415
N786 G3 X116. Y60. I-49.814 J25.585
N787 G1 Z-7.5 F100.
N788 G3 X109.814 Y85.585 I-56. J0. F300.
N789 G1 X71.045 Y63.202
N790 G2 Y56.798 I-11.045 J-3.202
N791 G1 X109.814 Y34.415
N792 G3 X116. Y60. I-49.814 J25.585
N793 G1 Z-9. F100.
N794 G3 X109.814 Y85.585 I-56. J0. F300.
N795 G1 X71.045 Y63.202
N796 G2 Y56.798 I-11.045 J-3.202
N797 G1 X109.814 Y34.415
N798 G3 X116. Y60. I-49.814 J25.585
N799 G1 Z-10.5 F100.
N800 G3 X109.814 Y85.585 I-56. J0. F300.
N801 G1 X71.045 Y63.202
N802 G2 Y56.798 I-11.045 J-3.202
N803 G1 X109.814 Y34.415
N804 G3 X116. Y60. I-49.814 J25.585
N805 G1 Z-12. F100.
N806 G3 X109.814 Y85.585 I-56. J0. F300.
N807 G1 X71.045 Y63.202
N808 G2 Y56.798 I-11.045 J-3.202
N809 G1 X109.814 Y34.415
N810 G3 X116. Y60. I-49.814 J25.585
N811 G1 Z-13.5 F100.
N812 G3 X109.814 Y85.585 I-56. J0. F300.
N813 G1 X71.045 Y63.202
N814 G2 Y56.798 I-11.045 J-3.202
N815 G1 X109.814 Y34.415
N816 G3 X116. Y60. I-49.814 J25.585
N817 G1 Z-15. F100.
N818 G3 X109.814 Y85.585 I-56. J0. F300.
N819 G1 X71.045 Y63.202
N820 G2 Y56.798 I-11.045 J-3.202
N821 G1 X109.814 Y34.415
N822 G3 X116. Y60. I-49.814 J25.585
N823 G1 Z-16.5 F100.
N824 G3 X109.814 Y85.585 I-56. J0. F300.
N825 G1 X71.045 Y63.202
N826 G2 Y56.798 I-11.045 J-3.202
N827 G1 X109.814 Y34.415
N828 G3 X116. Y60. I-49.814 J25.585
N829 G1 Z-18. F100.
N830 G3 X109.814 Y85.585 I-56. J0. F300.
N831 G1 X71.045 Y63.202
N832 G2 Y56.798 I-11.045 J-3.202
N833 G1 X109.814 Y34.415
N834 G3 X116. Y60. I-49.814 J25.585
N835 G1 Z5.
N836 X88. Y40.659
N837 Z2.5 F100.
N838 Z-1.5
N839 X68.295 Y52.035 F300.
N840 G2 X62.75 Y48.834 I-8.295 J7.965
N841 G1 Y4.068
N842 G3 X107.064 Y29.652 I-2.75 J55.933
N843 G1 X88. Y40.659
N844 Z-3. F100.
N845 X68.295 Y52.035 F300.
N846 G2 X62.75 Y48.834 I-8.295 J7.965
N847 G1 Y4.068
N848 G3 X107.064 Y29.652 I-2.75 J55.933
N849 G1 X88. Y40.659
N850 Z-4.5 F100.
N851 X68.295 Y52.035 F300.
N852 G2 X62.75 Y48.834 I-8.295 J7.965
N853 G1 Y4.068
N854 G3 X107.064 Y29.652 I-2.75 J55.933
N855 G1 X88. Y40.659
N856 Z-6. F100.
N857 X68.295 Y52.035 F300.
N858 G2 X62.75 Y48.834 I-8.295 J7.965
N859 G1 Y4.068
N860 G3 X107.064 Y29.652 I-2.75 J55.933
N861 G1 X88. Y40.659
N862 Z-7.5 F100.
N863 X68.295 Y52.035 F300.
N864 G2 X62.75 Y48.834 I-8.295 J7.965
N865 G1 Y4.068
N866 G3 X107.064 Y29.652 I-2.75 J55.933
N867 G1 X88. Y40.659
N868 Z-9. F100.
N869 X68.295 Y52.035 F300.
N870 G2 X62.75 Y48.834 I-8.295 J7.965
N871 G1 Y4.068
N872 G3 X107.064 Y29.652 I-2.75 J55.933
N873 G1 X88. Y40.659
N874 Z-10.5 F100.
N875 X68.295 Y52.035 F300.
N876 G2 X62.75 Y48.834 I-8.295 J7.965
N877 G1 Y4.068
N878 G3 X107.064 Y29.652 I-2.75 J55.933
N879 G1 X88. Y40.659
N880 Z-12. F100.
N881 X68.295 Y52.035 F300.
N882 G2 X62.75 Y48.834 I-8.295 J7.965
N883 G1 Y4.068
N884 G3 X107.064 Y29.652 I-2.75 J55.933
N885 G1 X88. Y40.659
N886 Z-13.5 F100.
N887 X68.295 Y52.035 F300.
N888 G2 X62.75 Y48.834 I-8.295 J7.965
N889 G1 Y4.068
N890 G3 X107.064 Y29.652 I-2.75 J55.933
N891 G1 X88. Y40.659
N892 Z-15. F100.
N893 X68.295 Y52.035 F300.
N894 G2 X62.75 Y48.834 I-8.295 J7.965
N895 G1 Y4.068
N896 G3 X107.064 Y29.652 I-2.75 J55.933
N897 G1 X88. Y40.659
N898 Z-16.5 F100.
N899 X68.295 Y52.035 F300.
N900 G2 X62.75 Y48.834 I-8.295 J7.965
N901 G1 Y4.068
N902 G3 X107.064 Y29.652 I-2.75 J55.933
N903 G1 X88. Y40.659
N904 Z-18. F100.
N905 X68.295 Y52.035 F300.
N906 G2 X62.75 Y48.834 I-8.295 J7.965
N907 G1 Y4.068
N908 G3 X107.064 Y29.652 I-2.75 J55.933
N909 G1 X88. Y40.659
N910 Z5.
N911 X57.25 Y26.081
N912 Z2.5 F100.
N913 Z-1.5
N914 Y48.834 F300.
N915 G2 X51.705 Y52.035 I2.75 J11.166
N916 G1 X12.936 Y29.652
N917 G3 X57.25 Y4.068 I47.064 J30.348
N918 G1 Y26.081
N919 Z-3. F100.
N920 Y48.834 F300.
N921 G2 X51.705 Y52.035 I2.75 J11.166
N922 G1 X12.936 Y29.652
N923 G3 X57.25 Y4.068 I47.064 J30.348
N924 G1 Y26.081
N925 Z-4.5 F100.
N926 Y48.834 F300.
N927 G2 X51.705 Y52.035 I2.75 J11.166
N928 G1 X12.936 Y29.652
N929 G3 X57.25 Y4.068 I47.064 J30.348
N930 G1 Y26.081
N931 Z-6. F100.
N932 Y48.834 F300.
N933 G2 X51.705 Y52.035 I2.75 J11.166
N934 G1 X12.936 Y29.652
N935 G3 X57.25 Y4.068 I47.064 J30.348
N936 G1 Y26.081
N937 Z-7.5 F100.
N938 Y48.834 F300.
N939 G2 X51.705 Y52.035 I2.75 J11.166
N940 G1 X12.936 Y29.652
N941 G3 X57.25 Y4.068 I47.064 J30.348
N942 G1 Y26.081
N943 Z-9. F100.
N944 Y48.834 F300.
N945 G2 X51.705 Y52.035 I2.75 J11.166
N946 G1 X12.936 Y29.652
N947 G3 X57.25 Y4.068 I47.064 J30.348
N948 G1 Y26.081
N949 Z-10.5 F100.
N950 Y48.834 F300.
N951 G2 X51.705 Y52.035 I2.75 J11.166
N952 G1 X12.936 Y29.652
N953 G3 X57.25 Y4.068 I47.064 J30.348
N954 G1 Y26.081
N955 Z-12. F100.
N956 Y48.834 F300.
N957 G2 X51.705 Y52.035 I2.75 J11.166
N958 G1 X12.936 Y29.652
N959 G3 X57.25 Y4.068 I47.064 J30.348
N960 G1 Y26.081
N961 Z-13.5 F100.
N962 Y48.834 F300.
N963 G2 X51.705 Y52.035 I2.75 J11.166
N964 G1 X12.936 Y29.652
N965 G3 X57.25 Y4.068 I47.064 J30.348
N966 G1 Y26.081
N967 Z-15. F100.
N968 Y48.834 F300.
N969 G2 X51.705 Y52.035 I2.75 J11.166
N970 G1 X12.936 Y29.652
N971 G3 X57.25 Y4.068 I47.064 J30.348
N972 G1 Y26.081
N973 Z-16.5 F100.
N974 Y48.834 F300.
N975 G2 X51.705 Y52.035 I2.75 J11.166
N976 G1 X12.936 Y29.652
N977 G3 X57.25 Y4.068 I47.064 J30.348
N978 G1 Y26.081
N979 Z-18. F100.
N980 Y48.834 F300.
N981 G2 X51.705 Y52.035 I2.75 J11.166
N982 G1 X12.936 Y29.652
N983 G3 X57.25 Y4.068 I47.064 J30.348
N984 G1 Y26.081
N985 Z5.
N986 Y93.919
N987 Z2.5 F100.
N988 Z-1.5
N989 Y115.932 F300.
N990 G3 X12.936 Y90.348 I2.75 J-55.932
N991 G1 X51.705 Y67.965
N992 G2 X57.25 Y71.166 I8.295 J-7.965
N993 G1 Y93.919
N994 Z-3. F100.
N995 Y115.932 F300.
N996 G3 X12.936 Y90.348 I2.75 J-55.932
N997 G1 X51.705 Y67.965
N998 G2 X57.25 Y71.166 I8.295 J-7.965
N999 G1 Y93.919
N1000 Z-4.5 F100.
N1001 Y115.932 F300.
N1002 G3 X12.936 Y90.348 I2.75 J-55.932
N1003 G1 X51.705 Y67.965
N1004 G2 X57.25 Y71.166 I8.295 J-7.965
N1005 G1 Y93.919
N1006 Z-6. F100.
N1007 Y115.932 F300.
N1008 G3 X12.936 Y90.348 I2.75 J-55.932
N1009 G1 X51.705 Y67.965
N1010 G2 X57.25 Y71.166 I8.295 J-7.965
N1011 G1 Y93.919
N1012 Z-7.5 F100.
N1013 Y115.932 F300.
N1014 G3 X12.936 Y90.348 I2.75 J-55.932
N1015 G1 X51.705 Y67.965
N1016 G2 X57.25 Y71.166 I8.295 J-7.965
N1017 G1 Y93.919
N1018 Z-9. F100.
N1019 Y115.932 F300.
N1020 G3 X12.936 Y90.348 I2.75 J-55.932
N1021 G1 X51.705 Y67.965
N1022 G2 X57.25 Y71.166 I8.295 J-7.965
N1023 G1 Y93.919
N1024 Z-10.5 F100.
N1025 Y115.932 F300.
N1026 G3 X12.936 Y90.348 I2.75 J-55.932
N1027 G1 X51.705 Y67.965
N1028 G2 X57.25 Y71.166 I8.295 J-7.965
N1029 G1 Y93.919
N1030 Z-12. F100.
N1031 Y115.932 F300.
N1032 G3 X12.936 Y90.348 I2.75 J-55.932
N1033 G1 X51.705 Y67.965
N1034 G2 X57.25 Y71.166 I8.295 J-7.965
N1035 G1 Y93.919
N1036 Z-13.5 F100.
N1037 Y115.932 F300.
N1038 G3 X12.936 Y90.348 I2.75 J-55.932
N1039 G1 X51.705 Y67.965
N1040 G2 X57.25 Y71.166 I8.295 J-7.965
N1041 G1 Y93.919
N1042 Z-15. F100.
N1043 Y115.932 F300.
N1044 G3 X12.936 Y90.348 I2.75 J-55.932
N1045 G1 X51.705 Y67.965
N1046 G2 X57.25 Y71.166 I8.295 J-7.965
N1047 G1 Y93.919
N1048 Z-16.5 F100.
N1049 Y115.932 F300.
N1050 G3 X12.936 Y90.348 I2.75 J-55.932
N1051 G1 X51.705 Y67.965
N1052 G2 X57.25 Y71.166 I8.295 J-7.965
N1053 G1 Y93.919
N1054 Z-18. F100.
N1055 Y115.932 F300.
N1056 G3 X12.936 Y90.348 I2.75 J-55.932
N1057 G1 X51.705 Y67.965
N1058 G2 X57.25 Y71.166 I8.295 J-7.965
N1059 G1 Y93.919
N1060 Z5.
N1061 X88. Y79.341
N1062 Z2.5 F100.
N1063 Z-1.5
N1064 X107.064 Y90.348 F300.
N1065 G3 X62.75 Y115.932 I-47.064 J-30.348
N1066 G1 Y71.166
N1067 G2 X68.295 Y67.965 I-2.75 J-11.166
N1068 G1 X88. Y79.341
N1069 Z-3. F100.
N1070 X107.064 Y90.348 F300.
N1071 G3 X62.75 Y115.932 I-47.064 J-30.348
N1072 G1 Y71.166
N1073 G2 X68.295 Y67.965 I-2.75 J-11.166
N1074 G1 X88. Y79.341
N1075 Z-4.5 F100.
N1076 X107.064 Y90.348 F300.
N1077 G3 X62.75 Y115.932 I-47.064 J-30.348
N1078 G1 Y71.166
N1079 G2 X68.295 Y67.965 I-2.75 J-11.166
N1080 G1 X88. Y79.341
N1081 Z-6. F100.
N1082 X107.064 Y90.348 F300.
N1083 G3 X62.75 Y115.932 I-47.064 J-30.348
N1084 G1 Y71.166
N1085 G2 X68.295 Y67.965 I-2.75 J-11.166
N1086 G1 X88. Y79.341
N1087 Z-7.5 F100.
N1088 X107.064 Y90.348 F300.
N1089 G3 X62.75 Y115.932 I-47.064 J-30.348
N1090 G1 Y71.166
N1091 G2 X68.295 Y67.965 I-2.75 J-11.166
N1092 G1 X88. Y79.341
N1093 Z-9. F100.
N1094 X107.064 Y90.348 F300.
N1095 G3 X62.75 Y115.932 I-47.064 J-30.348
N1096 G1 Y71.166
N1097 G2 X68.295 Y67.965 I-2.75 J-11.166
N1098 G1 X88. Y79.341
N1099 Z-10.5 F100.
N1100 X107.064 Y90.348 F300.
N1101 G3 X62.75 Y115.932 I-47.064 J-30.348
N1102 G1 Y71.166
N1103 G2 X68.295 Y67.965 I-2.75 J-11.166
N1104 G1 X88. Y79.341
N1105 Z-12. F100.
N1106 X107.064 Y90.348 F300.
N1107 G3 X62.75 Y115.932 I-47.064 J-30.348
N1108 G1 Y71.166
N1109 G2 X68.295 Y67.965 I-2.75 J-11.166
N1110 G1 X88. Y79.341
N1111 Z-13.5 F100.
N1112 X107.064 Y90.348 F300.
N1113 G3 X62.75 Y115.932 I-47.064 J-30.348
N1114 G1 Y71.166
N1115 G2 X68.295 Y67.965 I-2.75 J-11.166
N1116 G1 X88. Y79.341
N1117 Z-15. F100.
N1118 X107.064 Y90.348 F300.
N1119 G3 X62.75 Y115.932 I-47.064 J-30.348
N1120 G1 Y71.166
N1121 G2 X68.295 Y67.965 I-2.75 J-11.166
N1122 G1 X88. Y79.341
N1123 Z-16.5 F100.
N1124 X107.064 Y90.348 F300.
N1125 G3 X62.75 Y115.932 I-47.064 J-30.348
N1126 G1 Y71.166
N1127 G2 X68.295 Y67.965 I-2.75 J-11.166
N1128 G1 X88. Y79.341
N1129 Z-18. F100.
N1130 X107.064 Y90.348 F300.
N1131 G3 X62.75 Y115.932 I-47.064 J-30.348
N1132 G1 Y71.166
N1133 G2 X68.295 Y67.965 I-2.75 J-11.166
N1134 G1 X88. Y79.341
N1135 Z15.
(WHEN USING FUSION 360 FOR PERSONAL USE, THE FEEDRATE OF)
(RAPID MOVES IS REDUCED TO MATCH THE FEEDRATE OF CUTTING)
(MOVES, WHICH CAN INCREASE MACHINING TIME. UNRESTRICTED RAPID)
(MOVES ARE AVAILABLE WITH A FUSION 360 SUBSCRIPTION.)
(2D CONTOUR2)
N1136 G0 X29.25 Y6.739
N1137 G1 Z15. F300.
N1138 Z5.
N1139 Z2.5 F100.
N1140 G2 X90.75 Y113.261 Z1.75 I30.75 J53.261
N1141 X29.25 Y6.739 Z1. I-30.75 J-53.261
N1142 X90.75 Y113.261 Z0.25 I30.75 J53.261
N1143 X29.25 Y6.739 Z-0.5 I-30.75 J-53.261
N1144 X90.75 Y113.261 Z-1.25 I30.75 J53.261
N1145 X121.5 Y60. Z-1.5 I-30.75 J-53.261
N1146 X-1.5 I-61.5 J0. F300.
N1147 X121.5 I61.5 J0.
N1148 X-1.5 Z-2.25 I-61.5 J0. F100.
N1149 X121.5 Z-3. I61.5 J0.
N1150 X-1.5 I-61.5 J0. F300.
N1151 X121.5 I61.5 J0.
N1152 X-1.5 Z-3.75 I-61.5 J0. F100.
N1153 X121.5 Z-4.5 I61.5 J0.
N1154 X-1.5 I-61.5 J0. F300.
N1155 X121.5 I61.5 J0.
N1156 X-1.5 Z-5.25 I-61.5 J0. F100.
N1157 X121.5 Z-6. I61.5 J0.
N1158 X-1.5 I-61.5 J0. F300.
N1159 X121.5 I61.5 J0.
N1160 X-1.5 Z-6.75 I-61.5 J0. F100.
N1161 X121.5 Z-7.5 I61.5 J0.
N1162 X-1.5 I-61.5 J0. F300.
N1163 X121.5 I61.5 J0.
N1164 X-1.5 Z-8.25 I-61.5 J0. F100.
N1165 X121.5 Z-9. I61.5 J0.
N1166 X-1.5 I-61.5 J0. F300.
N1167 X121.5 I61.5 J0.
N1168 X-1.5 Z-9.75 I-61.5 J0. F100.
N1169 X121.5 Z-10.5 I61.5 J0.
N1170 X-1.5 I-61.5 J0. F300.
N1171 X121.5 I61.5 J0.
N1172 X-1.5 Z-11.25 I-61.5 J0. F100.
N1173 X121.5 Z-12. I61.5 J0.
N1174 X-1.5 I-61.5 J0. F300.
N1175 X121.5 I61.5 J0.
N1176 X-1.5 Z-12.75 I-61.5 J0. F100.
N1177 X121.5 Z-13.5 I61.5 J0.
N1178 X-1.5 I-61.5 J0. F300.
N1179 X121.5 I61.5 J0.
N1180 X-1.5 Z-14.25 I-61.5 J0. F100.
N1181 X121.5 Z-15. I61.5 J0.
N1182 X-1.5 I-61.5 J0. F300.
N1183 X121.5 I61.5 J0.
N1184 X-1.5 Z-15.75 I-61.5 J0. F100.
N1185 X121.5 Z-16.5 I61.5 J0.
N1186 X-1.5 I-61.5 J0. F300.
N1187 X121.5 I61.5 J0.
N1188 X55.066 Y-1.302 Z-16.894 I-61.5 J0. F100.
N1189 X-0.708 Y69.837 Z-17.288 I4.934 J61.302
N1190 G1 Z-17.25
N1191 G2 X0.539 Y75.706 I60.708 J-9.837
N1192 G1 Z-17.312
N1193 G2 X8.541 Y93.679 Z-17.388 I59.461 J-15.706
N1194 G1 Z-17.25
N1195 G2 X12.068 Y98.533 I51.459 J-33.679
N1196 G1 Z-17.412
N1197 G2 X26.689 Y111.697 Z-17.488 I47.932 J-38.533
N1198 G1 Z-17.25
N1199 G2 X31.885 Y114.697 I33.311 J-51.697
N1200 G1 Z-17.512
N1201 G2 X50.596 Y120.777 Z-17.588 I28.115 J-54.697
N1202 G1 Z-17.25
N1203 G2 X56.563 Y121.404 I9.404 J-60.777
N1204 G1 Z-17.612
N1205 G2 X76.129 Y119.347 Z-17.688 I3.437 J-61.404
N1206 G1 Z-17.25
N1207 G2 X81.835 Y117.493 I-16.129 J-59.347
N1208 G1 Z-17.712
N1209 G2 X98.873 Y107.656 Z-17.788 I-21.835 J-57.493
N1210 G1 Z-17.25
N1211 G2 X103.332 Y103.642 I-38.873 J-47.656
N1212 G1 Z-17.812
N1213 G2 X114.896 Y87.725 Z-17.888 I-43.332 J-43.642
N1214 G1 Z-17.25
N1215 G2 X117.336 Y82.244 I-54.896 J-27.725
N1216 G1 Z-17.912
N1217 G2 X121.427 Y63. Z-17.988 I-57.336 J-22.244
N1218 G1 Z-17.25
N1219 G2 X121.5 Y60. I-61.427 J-3.
N1220 X121.427 Y57. I-61.5 J0. F300.
N1221 G1 Z-18. F100.
N1222 G2 X117.336 Y37.756 I-61.427 J3. F300.
N1223 G1 Z-17.25
N1224 G2 X114.896 Y32.275 I-57.336 J22.244
N1225 G1 Z-18. F100.
N1226 G2 X103.332 Y16.358 I-54.896 J27.725 F300.
N1227 G1 Z-17.25
N1228 G2 X98.873 Y12.344 I-43.332 J43.642
N1229 G1 Z-18. F100.
N1230 G2 X81.835 Y2.507 I-38.873 J47.656 F300.
N1231 G1 Z-17.25
N1232 G2 X76.129 Y0.653 I-21.835 J57.493
N1233 G1 Z-18. F100.
N1234 G2 X56.563 Y-1.404 I-16.129 J59.347 F300.
N1235 G1 Z-17.25
N1236 G2 X50.596 Y-0.777 I3.437 J61.404
N1237 G1 Z-18. F100.
N1238 G2 X31.885 Y5.303 I9.404 J60.777 F300.
N1239 G1 Z-17.25
N1240 G2 X26.689 Y8.303 I28.115 J54.697
N1241 G1 Z-18. F100.
N1242 G2 X12.068 Y21.467 I33.311 J51.697 F300.
N1243 G1 Z-17.25
N1244 G2 X8.541 Y26.321 I47.932 J38.533
N1245 G1 Z-18. F100.
N1246 G2 X0.539 Y44.294 I51.459 J33.679 F300.
N1247 G1 Z-17.25
N1248 G2 X-0.708 Y50.163 I59.461 J15.706
N1249 G1 Z-18. F100.
N1250 G2 Y69.837 I60.708 J9.837 F300.
N1251 G1 Z-17.25
N1252 G2 X0.539 Y75.706 I60.708 J-9.837
N1253 G1 Z-18. F100.
N1254 G2 X8.541 Y93.679 I59.461 J-15.706 F300.
N1255 G1 Z-17.25
N1256 G2 X12.068 Y98.533 I51.459 J-33.679
N1257 G1 Z-18. F100.
N1258 G2 X26.689 Y111.697 I47.932 J-38.533 F300.
N1259 G1 Z-17.25
N1260 G2 X31.885 Y114.697 I33.311 J-51.697
N1261 G1 Z-18. F100.
N1262 G2 X50.596 Y120.777 I28.115 J-54.697 F300.
N1263 G1 Z-17.25
N1264 G2 X56.563 Y121.404 I9.404 J-60.777
N1265 G1 Z-18. F100.
N1266 G2 X76.129 Y119.347 I3.437 J-61.404 F300.
N1267 G1 Z-17.25
N1268 G2 X81.835 Y117.493 I-16.129 J-59.347
N1269 G1 Z-18. F100.
N1270 G2 X98.873 Y107.656 I-21.835 J-57.493 F300.
N1271 G1 Z-17.25
N1272 G2 X103.332 Y103.642 I-38.873 J-47.656
N1273 G1 Z-18. F100.
N1274 G2 X114.896 Y87.725 I-43.332 J-43.642 F300.
N1275 G1 Z-17.25
N1276 G2 X117.336 Y82.244 I-54.896 J-27.725
N1277 G1 Z-18. F100.
N1278 G2 X121.427 Y63. I-57.336 J-22.244 F300.
N1279 G1 Z-17.25
N1280 G2 X121.5 Y60. I-61.427 J-3.
N1281 G1 Z15.
N1282 M9
N1283 M5
N1284 M30
%
